X:8
T:Japan
R:Reel
C:David Grisman
M:4/4
L:1/8
Q:440
K:F
 z8 |: "Dm"DE FD "Em"EF GE | "F"FG AF "Em"GF EG |1 F"Dm"E DF "C"ED CE | "Am"DC A,2 A,4 :|2 "Dm"FE DF "A7"ED _DE | "Dm"D8 |
 |: "Dm"Ac df d4 | df cd "F"A4 | df cd Ac AG | "A7"A2 ee e2 Ac | "Dm"df cd Ac AG | "F"AG FA "C"GF EG | "Bb"FE DF "A7"ED _D2 | "Dm"D8 :|
